img/icon-home.svg

<?xml version="1.0" encoding="UTF-8"?>
<svg width="14px" height="12px" viewBox="0 0 14 12" version="1.1" xmlns="http://www.w3.org/2000/svg" xmlns:xlink="http://www.w3.org/1999/xlink">
    <!-- Generator: Sketch 54.1 (76490) - https://sketchapp.com -->
    <title>icon-home</title>
    <desc>Created with Sketch.</desc>
    <g id="Pages" stroke="none" stroke-width="1" fill="none" fill-rule="evenodd">
        <g id="Catalog" transform="translate(-129.000000, -343.000000)" fill="#C1C6CE">
            <g id="catalog-title" transform="translate(129.000000, 340.000000)">
                <g id="icon-home" transform="translate(0.000000, 3.000000)">
                    <g id="Shape">
                        <polygon fill-rule="nonzero" points="2 8 2 12 6 12 6 8 8 8 8 12 12 12 12 8 7 3.516"></polygon>
                        <path d="M13.831,6.365 L12,4.751 L12,0 L10,0 L10,2.987 L7.332,0.635 C7.312,0.618 7.289,0.612 7.268,0.598 C7.24296697,0.579705367 7.21616692,0.563960339 7.188,0.551 C7.1571089,0.540194635 7.12531656,0.532162886 7.093,0.527 C7.062,0.521 7.032,0.515 7,0.515 C6.969,0.515 6.939,0.521 6.908,0.527 C6.87553176,0.531918494 6.84368353,0.540299606 6.813,0.552 C6.785,0.563 6.76,0.581 6.733,0.598 C6.712,0.612 6.688,0.618 6.669,0.635 L0.171,6.365 C0.0162644664,6.50290979 -0.0375708933,6.72186533 0.0355718197,6.91580434 C0.108714533,7.10974335 0.293731369,7.23861749 0.501,7.24 C0.622931294,7.24034707 0.740735655,7.19585901 0.832,7.115 L7,1.677 L13.169,7.115 C13.3778213,7.27913239 13.6784423,7.25177617 13.8542071,7.05264681 C14.029972,6.85351744 14.0197903,6.55182615 13.831,6.365 Z" fill-rule="nonzero"></path>
                    </g>
                </g>
            </g>
        </g>
    </g>
</svg>

<svg width="14" height="12" xmlns="http://www.w3.org/2000/svg"><g fill-rule="nonzero" fill="#C1C6CE"><path d="M2 8v4h4V8h2v4h4V8L7 3.516z"/><path d="M13.831 6.365L12 4.751V0h-2v2.987L7.332.635c-.02-.017-.043-.023-.064-.037a.465.465 0 0 0-.08-.047.551.551 0 0 0-.095-.024C7.062.521 7.032.515 7 .515c-.031 0-.061.006-.092.012a.46.46 0 0 0-.095.025c-.028.011-.053.029-.08.046-.021.014-.045.02-.064.037L.171 6.365a.501.501 0 0 0 .661.75L7 1.677l6.169 5.438a.501.501 0 0 0 .662-.75z"/></g></svg>
